X:40
T: The Gold Rush
C: Bill Monroe
C: arranged by Andy Leftwich
S: Youtube video: http://au.youtube.com/watch?v=OSv5d0WYEhA
S: MandoZine TablEdit Archives
S: GoldRush-Leftwich-A.tef
Z: TablEdited by Steve Keating for MandoZine
L: 1/8
Q: 500
M: 4/4
K: A
 "1st break"z2 EF AB cd | e2 e2 ed cd | "A"de ee e2 ef | =gf ed cB AF | DE EF ED CB, |
 A,B, CE A2 AB | cB Ac BA FD | "E"EF Ac BA FA | "A"A2 EF AB cd |
 e2 de ed cd | e2 ee e2 ef | =gf ed cB AF | DE Ee E2 CB, |
 A,2 A,=G, A,B, CE | AB cd ed cA | "E"(3B=cB A^c BA FB | "A"AD FA A2 cB |
 AB AF E2 DE | "D"E/F/A zF "A"E2 ED | EF AB AF AF | AB Bc ze cB |
 AB A=G FE D=F | "D"Fd z2 "A"Bc zc | zB zE "E"(3B=cB AF | "A"A2 A2 A2 c'b |
 a2 ab af zA | "D"ef d'e "A"bc' ec' | zb AA af Af |
 zA ef ed cA | Bc de cB AE | "D"FA zF "A"E2 EF | E2 CE "E"DC B,=G, | "A"A,8 |
